client/public/img/game/shared/particles/casings/casing_338lap.svg

<?xml version="1.0" encoding="UTF-8" standalone="no"?>
<svg
   width="16"
   height="61"
   viewBox="0 0 16 61"
   fill="none"
   version="1.1"
   id="svg6"
   xmlns="http://www.w3.org/2000/svg"
   xmlns:svg="http://www.w3.org/2000/svg">
  <defs
     id="defs6" />
  <path
     fill-rule="evenodd"
     clip-rule="evenodd"
     d="M13.6117 57.6001L14.1908 57.0166L13.7367 13.8664L11.9198 8.87451L11.9198 1.94987L4.03654 1.94987L4.03654 8.87451L2.22013 13.8664L1.76562 57.0166L2.34505 57.6001L13.6117 57.6001Z"
     fill="#D7981E"
     id="path1" />
  <path
     d="M1.75781 58.3504L1.75781 59.2L2.17448 59.6167L13.783 59.6167L14.1996 59.2L14.1996 58.3504L13.6121 58.3504L2.34538 58.3504L1.75781 58.3504Z"
     fill="#D7981E"
     id="path2" />
  <path
     d="M13.6124 58.3506L13.6124 57.6003L2.3457 57.6003L2.3457 58.3506L13.6124 58.3506Z"
     fill="#AA7818"
     id="path3" />
  <path
     d="M13.6124 58.3506L13.6124 57.6003L2.3457 57.6003L2.3457 58.3506L13.6124 58.3506Z"
     stroke="#5A400C"
     stroke-miterlimit="3.99393"
     id="path4" />
  <path
     d="M14.1908 57.0164L13.6124 57.5993V58.3503H14.1996V59.1999L13.783 59.6165H2.17448L1.75781 59.1999V58.3503H2.34538L2.3457 57.5999L1.76562 57.0164L2.22013 13.8662L4.03654 8.87435L4.03654 1.94971L11.9198 1.94971L11.9198 8.87435L13.7367 13.8662L14.1908 57.0164Z"
     stroke="#5A400C"
     stroke-width="2"
     stroke-miterlimit="3.99393"
     id="path5" />
  <path
     d="M2.21973 13.8664L13.7362 13.8664M4.03613 8.87451H11.9194"
     stroke="#5A400C"
     stroke-width="2"
     stroke-miterlimit="3.99393"
     id="path6" />
</svg>

<svg xmlns="http://www.w3.org/2000/svg" width="16" height="61" fill="none"><path fill="#D7981E" fill-rule="evenodd" d="m13.612 57.6.579-.583-.454-43.15-1.817-4.992V1.95H4.037v6.925L2.22 13.866l-.454 43.15.58.584z" clip-rule="evenodd"/><path fill="#D7981E" d="M1.758 58.35v.85l.416.417h11.609l.417-.417v-.85H1.758"/><path fill="#AA7818" d="M13.612 58.35v-.75H2.346v.75z"/><path stroke="#5A400C" stroke-miterlimit="3.994" d="M13.612 58.35v-.75H2.346v.75z"/><path stroke="#5A400C" stroke-miterlimit="3.994" stroke-width="2" d="m14.19 57.016-.578.583v.751h.588v.85l-.417.416H2.174l-.416-.416v-.85h.587v-.75l-.58-.584.455-43.15 1.817-4.992V1.95h7.883v6.924l1.817 4.992zM2.22 13.866h11.516m-9.7-4.991h7.883"/></svg>
